X:1
T:Title
%%score { ( 1 2 ) | ( 3 4 ) }
L:1/8
M:4/4
K:Eb
V:1 treble nm="Grand Piano"
V:2 treble 
V:3 bass 
V:4 bass 
V:1
 z4 z2[Q:1/4=100] z G | [GB]3 [_G=A] [=GB]2 [Ge]2 | [Ad]2 .[CAc]2 [EGB]2 [B,EG]2 | %3
 [DF]3 [_D=E] [=DF][_EG][GB]A | G6 z G | [GB]3 [_G=A] [=GB]2 [Ge]2 | [Ad]2 .[CAc]2 [EGB]2 G2 | %7
 F3 d dedc |[M:3/4] [B,DB]6 |[M:1/4] B2 |[M:4/4] [Ad]3 [Ac] [Ac]2 [Ad]2 | %11
 [Gc]3 [B,GB] [B,GB]2 .[B,GB]2 | [Gd]2 [Gd]2 [_Gd]3 [G=A] | [GB]6 [AB]2 | [Ge]3 [Ge] [Ge]2 [EG]2 | %15
[M:9/8] [EA]2 [EB]- [EB] [Ec]2- [Ec] [Ec]2 |[M:4/4] [B,EB]3 [G,E] [B,EG]2 [A,DF]2 | %17
[M:3/4] [G,E]6 |] %18
V:2
 z4 z2 E2 | x8 | x8 | x8 | z4 z2 E2 | x8 | x8 | x8 |[M:3/4] x6 |[M:1/4] x2 |[M:4/4] x8 | x8 | x8 | %13
 x8 | x8 |[M:9/8] x9 |[M:4/4] x8 |[M:3/4] x6 |] %18
V:3
 z4 z2 G,B, | [E,E]3 [E,E] [E,E]2 [E,B,]2 | [E,C]2 z D E,2 E,2 | [B,,B,]3 [B,,B,] [B,,B,]2 z F | %4
 [E,B,E]6 G,B, | [E,E]3 [E,E] [E,E]2 [E,B,]2 | [E,C]2 z D E,2 [E,B,E]2 | %7
 [F,B,D]3[K:treble] [F,B,F] FGFE |[M:3/4][K:bass] B,,6 |[M:1/4] B,2 | %10
[M:4/4] [B,,B,]3 [B,,B,] [B,,B,]2 [B,,B,]2 | [E,B,]3 E, E,2 z[K:treble] c | %12
 [D,B,]2 [D,B,]2 [D,A,]3 [D,D] | [G,D]6 [F,D]2 | [E,E]3 [E,E] [E,B,]2 [_D,B,]2 | %15
[M:9/8] [C,A,]2 [B,,G,]- [B,,G,] [A,,A,]2- [A,,A,] [A,,A,]2 |[M:4/4] G,,3 C, B,,2 B,,2 | %17
[M:3/4] E,6 |] %18
V:4
 z4 z2 E,2 | x8 | z2 E,2 z4 | z4 z2 [B,,B,]2 | z4 z2 E,2 | x8 | z2 E,2 z4 | %7
 z4[K:treble] [F,=A,]2 [F,A,]2 |[M:3/4][K:bass] x6 |[M:1/4] x2 |[M:4/4] x8 | z4 z2 E,2[K:treble] | %12
 x8 | x8 | x8 |[M:9/8] x9 |[M:4/4] x8 |[M:3/4] x6 |] %18

